!!!SOCIAL_FUNCTION:	songs of the peyote ceremony
!!!PDT:	1936
!!!OTL: No_54_Closing_Song_of_Peyote_Ceremony.krn
!!!REG: Oklahoma and Montana
!!!LANG: Tone
!!!LING_GROUP: Algonquin
**kern
*staff1
=1-
*clefF4
*k[b-e-a-d-]
*M7/8
2r
8r
8.e-\L
16c\Jk
=2
4e-\
4e-\
(4e-\
16c\)
16r
=3
*M2/4
8e-\L
8e-\J
8c\L
16c\Jk
16r
=4
8e-\L
8e-\J
8c\L
[8c\J
=5
*M3/4
(4c\]
8E-\)
8r
(8.e-\L
16c\Jk)
=6
*M7/8
4e-\
4e-\
(4e-\
16c\)
16r
=7
*M2/4
8e-\L
8e-\J
8c\L
16c\Jk
16r
=8
8e-\L
8e-\J
8c\L
8c\J
=9
4c\
8E-\
8r
=10!|:
*M5/8
8c\L
8c\
8c\
8c\
16c\Jk
16r
=11
*M2/4
8e-\L
8e-\J
8c\L
16c\Jk
16r
=12
8e-\L
8e-\J
8c\L
[8c\J
=13
4c\]
8E-\
8r
=14
*M5/8
8d-\L
8d-\
8d-\
8d-\
16B-\Jk
16r
=15
*M2/4
8d-\L
8B-\J
8A-\L
16F\Jk
16r
=16
*M5/8
8A-\L
8F\
8E-\
8E-\
8F\J
=17
*M3/4
4E-\
4E-\
8E-\
8r
=18
*M5/8
8d-\L
8d-\
8d-\
8d-\
16B-\Jk
16r
=19
*M2/4
8d-\L
8B-\J
8A-\L
16F\Jk
16r
=20
*M5/8
8A-\L
8F\
8E-\
8E-\
8F\J
=21
*M3/4
4E-\
4E-\
8E-\
8r
=22
*M5/8
8E-\L
8E-\
8E-\
8E-\
16E-\Jk
16r
=23
*M2/4
8A-\L
8F\J
8E-\L
16E-\Jk
16r
=24
*M5/8
8A-\L
8F\
8E-\
8E-\
8F\J
=25
*M3/4
4E-\
4E-\
4E-\
=26
*M2/4
4E-\
4r
==:|!
*-
